!!!OTL: Richmudis von Adocht Hoert, Christenleut', jetzt ein neues Lied,
!!!ARE: Europa, Mitteleuropa, Deutschland
!!!YOR: 5, S. 237
!!    1856 aufgezeichnet (?)
!!!SCT: Q0112
!!!YEM: Copyright 1995, estate of Helmut Schaffrath.
**kern
*ICvox
*Ivox
*M3/8
*k[b-e-]
*g:
{8d
=1
4g
8g
=2
8a
8a
8dd
=3
4cc
8b-
=4
4a}
{8b-
=5
8g
8a
8b-
=6
8a
8g
8f#
=7
4g
8a
=8
4d}
{8dd
=9
8dd
8cc
8b-
=10
8cc
8a
16dd
16cc
=11
8b-
8b-
8a
=12
4g}
{8d
=13
8g
8a
16b-
16cc
=14
8dd
8g
16b-
16a
=15
8g
8g
8f#
=16
4g}
{8dd
=17
8dd
8cc
8b-
=18
8cc
8a
16dd
16cc
=19
8b-
8b-
8a
=20
4g}
{8d
=21
8g
8a
16b-
16cc
=22
8dd
8g
16b-
16a
=23
8g
8g
8f#
=24
4g}
==
!!!AGN: Ballade, Schein - Tod, Grab, Auferstehen
!!!ONB: ESAC (Essen Associative Code) Database: BALLADE
!!!AMT: simple triple
!!!AIN: vox
!!!EED: Helmut Schaffrath
!!!EEV: 1.0
*-
